dist/icons/svgs/sunset-solid.svg

<svg xmlns="http://www.w3.org/2000/svg" width="24" height="24" fill="currentcolor" class="icon-sunset-solid" viewBox="0 0 24 24">
  <path d="M15.0781 6.10156C15.5859 5.63281 16.4062 5.67188 16.8359 6.17969C17.3047 6.6875 17.2656 7.46875 16.7578 7.9375L13.3203 11.0625C12.8516 11.4922 12.1094 11.4922 11.6406 11.0625L8.20312 7.9375C7.69531 7.46875 7.65625 6.6875 8.125 6.17969C8.59375 5.67188 9.375 5.63281 9.88281 6.10156L11.25 7.3125V3.25C11.25 2.58594 11.7969 2 12.5 2C13.1641 2 13.75 2.58594 13.75 3.25V7.3125L15.0781 6.10156ZM16.9922 11.2969L17.7734 15.4766L21.9531 16.2578C22.1875 16.2969 22.3438 16.4531 22.4219 16.6484C22.5 16.8438 22.5 17.0781 22.3828 17.2344L21.25 18.875H17.1094C16.3672 17.0781 14.5703 15.75 12.5 15.75C10.3906 15.75 8.59375 17.0781 7.85156 18.875H3.75L2.57812 17.2344C2.46094 17.0781 2.46094 16.8438 2.53906 16.6484C2.61719 16.4531 2.77344 16.2969 3.00781 16.2578L7.22656 15.4766L7.96875 11.2969C8.00781 11.0625 8.16406 10.9062 8.35938 10.8281C8.55469 10.75 8.78906 10.75 8.94531 10.8672L12.5 13.3281L16.0156 10.8672C16.1719 10.75 16.4062 10.75 16.6016 10.8281C16.7969 10.9062 16.9531 11.0625 16.9922 11.2969ZM1.25 21.0625C1.25 20.5547 1.64062 20.125 2.1875 20.125H22.8125C23.3203 20.125 23.75 20.5547 23.75 21.0625C23.75 21.6094 23.3203 22 22.8125 22H2.1875C1.64062 22 1.25 21.6094 1.25 21.0625Z"/>
</svg>

<svg xmlns="http://www.w3.org/2000/svg" width="24" height="24" fill="currentColor" class="icon-sunset-solid" viewBox="0 0 24 24">
  <path d="M15.078 6.102c.508-.47 1.328-.43 1.758.078a1.24 1.24 0 0 1-.078 1.758l-3.438 3.125c-.468.43-1.21.43-1.68 0L8.204 7.937a1.24 1.24 0 0 1-.078-1.757 1.24 1.24 0 0 1 1.758-.078l1.367 1.21V3.25c0-.664.547-1.25 1.25-1.25.664 0 1.25.586 1.25 1.25v4.063zm1.914 5.195.781 4.18 4.18.78c.235.04.39.196.469.391.078.196.078.43-.04.586l-1.132 1.641h-4.14c-.743-1.797-2.54-3.125-4.61-3.125-2.11 0-3.906 1.328-4.648 3.125H3.75l-1.172-1.64c-.117-.157-.117-.391-.039-.587a.6.6 0 0 1 .469-.39l4.219-.781.742-4.18a.6.6 0 0 1 .39-.469c.196-.078.43-.078.586.04l3.555 2.46 3.516-2.46c.156-.118.39-.118.586-.04a.6.6 0 0 1 .39.469M1.25 21.063c0-.508.39-.938.938-.938h20.625a.95.95 0 0 1 .937.938c0 .546-.43.937-.937.937H2.188c-.547 0-.938-.39-.938-.937"/>
</svg>
